X: 346
%
U:~=!turn!
T: Lord Lyndoch
C:P. Agnew
O:Scotland
B:Keith Norman MacDonald : "The Skye collection of the best reels & strathspeys extant" : 1887
Z:Ralph Palmer
R:Strathspey
M:C
L:1/8
K:D
A | d>ed<B A>FD<F | F<BB>A F<BB>c | d>ed<B A>FD>F | E>DE<F D/D/D D:|
g | (f/e/d) (a>d) f>da>d | (c/B/A) (e>A) c>de>g | (f/e/d) (a>d) f>da>d | g<ba>g fddg |
(f/e/d) (a>d) f>da>d | (e/B/A) (eA) c>de<A | B<dc<e d<fe<g| f<ba>g fdd |]


